!!!!SEGMENT: Crp1002a-Missa_A_lombre_dung_buissonet-Kyrie
!!!id: Crp1002a
!!!AGN: Mass; Kyrie
!!!voices: 4
!!!OPR: Missa A l'ombre d'ung buissonet
!!!COM: Carpentras
!!!OTL: Kyrie
**kern	**kern	**kern	**kern
*part4	*part3	*part2	*part1
*staff4	*staff3	*staff2	*staff1
*I"Bassus	*I"Tenor	*I"Altus	*I"Superius
*I'B.	*I'T.	*I'A.	*I'S.
*clefGv2	*clefG2	*clefG2	*clefG2
*k[]	*k[]	*k[]	*k[]
*M2/1	*M2/1	*M2/1	*M2/1
*met(C|)	*met(C|)	*met(C|)	*met(C|)
=1	=1	=1	=1
!!section: Kyrie I
!!!OMD: Kyrie I
0r	0r	1g	1r
.	.	1g	1dd
=2	=2	=2	=2
0r	1d	2.d	1dd
.	.	4e	.
.	1d	4f	2.a
.	.	4g	.
.	.	[2a	.
.	.	.	4b
=3	=3	=3	=3
0r	2A	2a]	4cc
.	.	.	4dd
.	1c	1g	1ee
.	2d	2f	[2dd
=4	=4	=4	=4
1r	1e	2r	2dd]
.	.	2g	2cc#i
1G	1d	2g	1dd
.	.	2g	.
=5	=5	=5	=5
1G	2r	2.d	1r
.	2d	.	.
.	.	4e	.
2D	2d	4f	1ff
.	.	4g	.
[2F	2d	[2a	.
=6	=6	=6	=6
2F]	2A	2a]	2ff
2G	2B	1g	1ee
1A	2.c	.	.
.	.	2f#i	4dd
.	4d	.	4cc
=7	=7	=7	=7
0G	1e	0g	2.b
.	.	.	4a
.	1d	.	1b
=8	=8	=8	=8
1.d	1.f	0r	0a
2c	2e	.	.
=9	=9	=9	=9
2.f	1.d	2r	0r
.	.	1a	.
4e	.	.	.
2f	.	.	.
[2e	2c	[2cc	.
=10	=10	=10	=10
4e]	2.A	4cc]	0r
4d	.	4b	.
4c	.	4a	.
4B	4B	4g	.
4A	2c	4f	.
4G	.	4e	.
2B	[2d	[2g	.
=11	=11	=11	=11
2A	4d]	4g]	0r
.	4c	4f	.
4G	1c	1f	.
4F	.	.	.
1G	.	.	.
.	2B	2e	.
=12	=12	=12	=12
1F	2c	2r	0r
.	1f	1a	.
[1f	.	.	.
.	2e	[2cc	.
=13	=13	=13	=13
2f]	2d	4cc]	1.ff
.	.	4b	.
2e	2c	4a	.
.	.	4g	.
2d	2d	2f	.
2c	2e	[2g	2ee
=14	=14	=14	=14
2.B-X	1f	4g]	1.dd
.	.	4f	.
.	.	1f	.
4A	.	.	.
1G	1g	.	.
.	.	2e	4cc
.	.	.	4b
=15	=15	=15	=15
1F	2c	2f	2.a
.	2.f	2.a	.
.	.	.	4b
1r	.	.	2cc
.	4e	4g	.
.	4f	4a	[2dd
.	4d	4f	.
=16	=16	=16	=16
0r	2e	2g	4dd]
.	.	.	4cc
.	2f	2a	1cc
.	1d	1f	.
.	.	.	2b
=17	=17	=17	=17
1r	2c	2g	0cc
.	2.f	2.a	.
2r	.	.	.
.	4e	4g	.
[2A	4f	4a	.
.	4d	4b	.
=18	=18	=18	=18
4A]	2e	1cc	0r
4G	.	.	.
4A	2f	.	.
4F	.	.	.
2G	2e	2r	.
2A	[2f	[2a	.
=19	=19	=19	=19
2D	4f]	4a]	0r
.	4e	4g	.
2F	1d	4a	.
.	.	4f	.
1E	.	2.g	.
.	2c	.	.
.	.	4a	.
=20	=20	=20	=20
1D	2.d	2.f	2r
.	.	.	2dd
.	4e	4g	.
2r	2f	1a	2dd
2d	4d	.	2dd
.	4e	.	.
=21	=21	=21	=21
2d	4f	0r	2.a
.	4g	.	.
2d	1a	.	.
.	.	.	4b
2G	.	.	4cc
.	.	.	4dd
2c	2g	.	2ee
=22	=22	=22	=22
2c	2g	1r	2ee
2d	2f	.	1dd
1e	1g	2r	.
.	.	[2g	2cc#i
=23	=23	=23	=23
1d	1a	2g]	[0ddl
.	.	2f	.
[1G	1g	[1b-i	.
=24	=24	=24	=24
2G]	0d	2b-]	0dd_
2F	.	2a	.
[1B-i	.	2g	.
.	.	2f	.
=25	=25	=25	=25
2B-]	0g	1.b-i	0dd_
2A	.	.	.
2G	.	.	.
4F	.	4a	.
4E	.	4g	.
=26	=26	=26	=26
[0Dl	1.f	[0al	0dd_
.	4e	.	.
.	4d	.	.
=27	=27	=27	=27
0D]	0dl	0a]	0dd]
=28||	=28||	=28||	=28||
*M2/1	*M2/1	*M2/1	*M2/1
*met(C|)	*met(C|)	*met(C|)	*met(C|)
!!section: Christe
!!!OMD: Christe
0r	0r	1.b-X	0r
.	.	2a	.
=29	=29	=29	=29
0r	0r	1.g	0r
.	.	4f	.
.	.	4e	.
=30	=30	=30	=30
1r	0r	2.d	1.ff
.	.	4e	.
[1B-X	.	4f	.
.	.	4d	.
.	.	[2g	2ee
=31	=31	=31	=31
2B-]	0r	4g]	1.dd
.	.	4f	.
2A	.	1f	.
1G	.	.	.
.	.	2e	4cc
.	.	.	4b
=32	=32	=32	=32
0F	1r	1f	2.a
.	.	.	4b
.	[1f	[1a	2cc
.	.	.	[2dd
=33	=33	=33	=33
0r	2f]	2a]	4dd]
.	.	.	4cc
.	2e	2g	1cc
.	2.d	2.f	.
.	.	.	2b
.	8cL	8eL	.
.	8BJ	8dJ	.
=34	=34	=34	=34
1r	2.A	1e	1cc
.	4B	.	.
[1F	4c	2r	1r
.	4A	.	.
.	[2d	[2a	.
=35	=35	=35	=35
2F]	4d]	2a]	1dd
.	4c	.	.
2E	1c	2g	.
1D	.	1f	2dd
.	2B	.	2dd
=36	=36	=36	=36
1C	1c	2e	1ee
.	.	1a	.
1r	2r	.	2.ff
.	[2d	[2f	.
.	.	.	4ee
=37	=37	=37	=37
0r	4d]	4f]	4dd
.	4e	4g	4cc
.	2.f	2a	2dd
.	.	2d	2a
.	4e	.	.
.	4d	[2f	[2b-X
.	4c	.	.
=38	=38	=38	=38
0r	2d	4f]	4b-]
.	.	4e	4a
.	2A	1e	1a
.	1B-X	.	.
.	.	2d	2g
=39	=39	=39	=39
2r	2.A	2.f	0a
2.F	.	.	.
.	4G	8eL	.
.	.	8dJ	.
.	4A	1c	.
4G	4B	.	.
4A	4c	.	.
4B	4d	.	.
=40	=40	=40	=40
4c	4e	2r	0r
4A	4f	.	.
2B-i	2.g	2d	.
2.F	.	1a	.
.	4f	.	.
.	2f	.	.
4A	.	.	.
=41	=41	=41	=41
2G	2e	2b-X	1r
2F	2.f	1a	.
2.B-i	.	.	1dd
.	4e	.	.
.	4d	2f	.
4A	4c	.	.
=42	=42	=42	=42
2G	4B	2g	2dd
.	4A	.	.
2F	1d	2.a	2dd
1E	.	.	1ee
.	.	4g	.
.	2c#i	2g	.
=43	=43	=43	=43
1D	2d	2f	2.ff
.	2.f	4d	.
.	.	4e	4ee
1d	.	4f	4dd
.	4e	4g	4cc
.	4f	4a	2dd
.	4d	4b	.
=44	=44	=44	=44
2c	2e	4cc	2a
.	.	4a	.
2d	2.f	2.b-X	1dd
1A	.	.	.
.	4e	4a	.
.	2e	[2a	2cc#i
=45	=45	=45	=45
1B-X	2r	2a]	1dd
.	2d	2g	.
1A	2e	1a	1cc#X
.	2e	.	.
=46	=46	=46	=46
0r	2.f	2r	1r
.	.	2a	.
.	4e	.	.
.	4d	2a	1dd
.	4c	.	.
.	2d	2b	.
=47	=47	=47	=47
1r	1A	1cc	2ee
.	.	.	2ee
2r	1r	[1a	2.ff
[2d	.	.	.
.	.	.	4ee
=48	=48	=48	=48
2d]	2r	1a]	4dd
.	.	.	4cc
2.f	1d	.	2dd
.	.	1r	2a
4e	.	.	.
4d	[2f	.	[2b-X
4c	.	.	.
=49	=49	=49	=49
2d	2f]	1r	4b-]
.	.	.	4a
2A	2.e	.	1a
1B	.	2r	.
.	4d	.	.
.	[2d	2d	2g#i
=50	=50	=50	=50
1A	2d]	2e	[0al
.	2c#i	2e	.
[1D	1d	2f	.
.	.	2d	.
=51	=51	=51	=51
2D]	1A	1.f	0a_
2E	.	.	.
2F	1d	.	.
2G	.	2e	.
=52	=52	=52	=52
0Al	0c#Xl	0el	0a]
=53||	=53||	=53||	=53||
*M2/1	*M2/1	*M2/1	*M2/1
*met(C|)	*met(C|)	*met(C|)	*met(C|)
!!section: Kyrie II
!!!OMD: Kyrie II
0r	0r	1f	0r
.	.	2e	.
.	.	2e	.
=54	=54	=54	=54
1B-X	0r	2.d	0r
.	.	4e	.
2A	.	4f	.
.	.	4g	.
2F	.	[2a	.
=55	=55	=55	=55
1G	1r	4a]	1b-X
.	.	4g	.
.	.	1g	.
1D	1d	.	2a
.	.	2f#i	2a
=56	=56	=56	=56
0r	2.e	1g	2.g
.	4f	.	4a
.	4g	1r	4b
.	4e	.	4cc
.	[2f	.	[2dd
=57	=57	=57	=57
1r	4f]	0r	4dd]
.	4c	.	4cc
.	2e	.	1cc
1G	1d	.	.
.	.	.	2b
=58	=58	=58	=58
2A	2c	1r	2.cc
1c	1e	.	.
.	.	.	4dd
.	.	1cc	4ee
.	.	.	4ff
4B	4d	.	[2gg
4A	4c	.	.
=59	=59	=59	=59
2.G	2e	1b	2gg]
.	2d	.	2dd
4F	.	.	.
2E	2r	2g	2ee
2D	2d	[2a	[2ff
=60	=60	=60	=60
1F	2c	4a]	4ff]
.	.	4g	4ee
.	2A	4f	4dd
.	.	4e	4cc
2G	2B	2d	4b
.	.	.	4a
[2F	[2A	[2a	[2cc
=61	=61	=61	=61
2F]	2A]	4a]	2cc]
.	.	4g	.
2G	4B	1g	2b
.	4c	.	.
1D	1d	.	1a
.	.	2f#i	.
=62	=62	=62	=62
2r	1G	2.g	1g
2.G	.	.	.
.	.	4a	.
.	1g	4b	1r
4A	.	4cc	.
4B	.	[2dd	.
4c	.	.	.
=63	=63	=63	=63
1d	1f	2dd]	0r
.	.	2a	.
1r	2d	2b	.
.	[2e	[2cc	.
=64	=64	=64	=64
0r	4e]	4cc]	0r
.	4d	4b	.
.	4c	4a	.
.	4B	4g	.
.	2A	4f	.
.	.	4e	.
.	[2e	[2g	.
=65	=65	=65	=65
0r	4e]	2g]	1r
.	4d	.	.
.	1d	2f	.
.	.	1e	1gg
.	2c#i	.	.
=66	=66	=66	=66
1r	1d	2d	1ff
.	.	2a	.
2r	1r	2b-X	2dd
2c	.	2g	[2ee
=67	=67	=67	=67
2c	0r	2.a	4ee]
.	.	.	4dd
2c	.	.	4cc
.	.	4g	4b
2d	.	2f	2a
2c	.	2e	[2ee
=68	=68	=68	=68
2d	0r	2f	4ee]
.	.	.	4dd
2G	.	2g	1dd
1A	.	1e	.
.	.	.	2cc#i
=69	=69	=69	=69
2D	1r	0d	0dd
2.G	.	.	.
.	1g	.	.
4A	.	.	.
4B	.	.	.
4c	.	.	.
=70	=70	=70	=70
2d	1f	0r	0r
2A	.	.	.
2B	2d	.	.
[2c	[2e	.	.
=71	=71	=71	=71
4c]	4e]	0r	0r
4B	4d	.	.
4A	4c	.	.
4G	4B	.	.
4F	2A	.	.
4E	.	.	.
[2G	[2e	.	.
=72	=72	=72	=72
2G]	4e]	1r	1r
.	4d	.	.
2F	1d	.	.
1E	.	2.g	1gg
.	2c#i	.	.
.	.	4a	.
=73	=73	=73	=73
1D	2.d	4b	1ff
.	.	4cc	.
.	.	2.dd	.
.	4A	.	.
1r	2B	.	2dd
.	.	4cc	.
.	2c	4a	[2ee
.	.	4b	.
=74	=74	=74	=74
2r	2A	1.cc	4ee]
.	.	.	4dd
2A	1a	.	4cc
.	.	.	4b
2F	.	.	2a
2G	2g	2b-X	[2ee
=75	=75	=75	=75
2A	2f	2a	4ee]
.	.	.	4dd
2B-i	4e	2g	1dd
.	4d	.	.
1A	1e	1a	.
.	.	.	2cc#i
=76	=76	=76	=76
0Dl	0dl	0al	0ddl
==	==	==	==
*-	*-	*-	*-
!!!system-decoration: s1,s2,s3,s4
!!!RDF**kern: i = editorial accidental
!!!RDF**kern: l = terminal long
!!!ENC: Max Blistain
!!!END: 2025/12/07
!!!EED: Benjamin Ory
!!!EEV: 2026/01/30
!!!YEC: Copyright 2026 Benjamin Ory, All Rights Reserved
!!!ONB: Translated from MusicXML on 2026/01/30
